X:344
T: Jian maigeng
N: C1262
O: China,Shanxi
S: MM, Seite 4, 2]
N: Die Stuecke sind meist uebersteuert, also verzerrt.
R: Xiaodiao. Shenghuo xiaochang]
M: 2/4
L: 1/16
K: F
G2G2c2df | B2A2G4 | G2G2c2df | B2A2G4 |
G2G2c2d2 | G2d2c2B2 | A3Gc2G2 | F2E2D2C2 |
c6f2 | c2B2A2G2 | F2C6

@@@ Tune index: 6345
